img/icons/action/address-book-add.svg

<svg viewBox="0 0 16 16" xmlns="http://www.w3.org/2000/svg"><path d="m2 11.2v-1.2h-1.5c-0.276 0-0.5-0.224-0.5-0.5s0.224-0.5 0.5-0.5h1.5v-2h-1.5c-0.276 0-0.5-0.224-0.5-0.5s0.224-0.5 0.5-0.5h1.5v-1.2c0-0.291 0-0.556 0.00169-0.8h-1.5c-0.276 0-0.5-0.224-0.5-0.5s0.224-0.5 0.5-0.5h1.53c0.0359-0.588 0.117-1.01 0.298-1.36 0.288-0.564 0.747-1.02 1.31-1.31 0.642-0.327 1.48-0.327 3.16-0.327h3.4c1.68 0 2.52 0 3.16 0.327 0.564 0.288 1.02 0.747 1.31 1.31 0.182 0.356 0.262 0.774 0.298 1.36h0.529c0.276 0 0.5 0.224 0.5 0.5v2c0 0.276-0.224 0.5-0.5 0.5h-0.5v1.5c0 0.276-0.224 0.5-0.5 0.5s-0.5-0.224-0.5-0.5v-2.7c0-0.857-8e-4 -1.44-0.0376-1.89-0.0358-0.438-0.101-0.663-0.18-0.819-0.192-0.376-0.498-0.682-0.874-0.874-0.156-0.0797-0.381-0.145-0.819-0.18-0.45-0.0368-1.03-0.0376-1.89-0.0376h-3.4c-0.857 0-1.44 7.8e-4 -1.89 0.0376-0.438 0.0358-0.663 0.101-0.819 0.18-0.376 0.192-0.682 0.498-0.874 0.874-0.0797 0.156-0.145 0.381-0.18 0.819-0.0368 0.45-0.0376 1.03-0.0376 1.89v6.4c0 0.857 7.8e-4 1.44 0.0376 1.89 0.0358 0.438 0.101 0.663 0.18 0.819 0.192 0.376 0.498 0.682 0.874 0.874 0.156 0.0797 0.381 0.145 0.819 0.18 0.45 0.0368 1.03 0.0376 1.89 0.0376h0.7c0.276 0 0.5 0.224 0.5 0.5s-0.224 0.5-0.5 0.5h-0.7c-1.68 0-2.52 0-3.16-0.327-0.564-0.288-1.02-0.746-1.31-1.31-0.182-0.356-0.262-0.774-0.298-1.36h-1.53c-0.276 0-0.5-0.224-0.5-0.5s0.224-0.5 0.5-0.5h1.5c-0.00169-0.244-0.00169-0.509-0.00169-0.8z" fill="#000"/><path d="m12 7.5c0-0.276-0.224-0.5-0.5-0.5s-0.5 0.224-0.5 0.5v3.5h-3.5c-0.276 0-0.5 0.224-0.5 0.5s0.224 0.5 0.5 0.5h3.5v3.5c0 0.276 0.224 0.5 0.5 0.5s0.5-0.224 0.5-0.5v-3.5h3.5c0.276 0 0.5-0.224 0.5-0.5s-0.224-0.5-0.5-0.5h-3.5v-3.5z" fill="#000"/></svg>

<svg xmlns="http://www.w3.org/2000/svg" viewBox="0 0 16 16" fill="none">
  <path fill="#000"
    d="M2 11.2V10H.5a.5.5 0 0 1 0-1H2V7H.5a.5.5 0 0 1 0-1H2V4.8c0-.29 0-.556.002-.8H.5a.5.5 0 0 1 0-1h1.529c.036-.588.116-1.006.298-1.362A3 3 0 0 1 3.638.327C4.28 0 5.12 0 6.8 0h3.4c1.68 0 2.52 0 3.162.327a3 3 0 0 1 1.311 1.311c.181.356.262.774.298 1.362h.529a.5.5 0 0 1 .5.5v2a.5.5 0 0 1-.5.5H15v1.5a.5.5 0 0 1-1 0V4.8c0-.857 0-1.439-.038-1.889-.035-.438-.1-.663-.18-.819a2 2 0 0 0-.874-.874c-.156-.08-.38-.145-.819-.18C11.639 1 11.057 1 10.2 1H6.8c-.857 0-1.439 0-1.889.038-.438.035-.663.1-.819.18a2 2 0 0 0-.874.874c-.08.156-.145.38-.18.819C3 3.361 3 3.943 3 4.8v6.4c0 .857 0 1.439.038 1.889.035.438.1.663.18.819a2 2 0 0 0 .874.874c.156.08.38.145.819.18C5.361 15 5.943 15 6.8 15h.7a.5.5 0 0 1 0 1h-.7c-1.68 0-2.52 0-3.162-.327a3 3 0 0 1-1.311-1.311c-.182-.356-.262-.774-.298-1.362H.5a.5.5 0 0 1 0-1h1.502C2 11.756 2 11.49 2 11.2Z" />
  <path fill="#000"
    d="M12 7.5a.5.5 0 0 0-1 0V11H7.5a.5.5 0 0 0 0 1H11v3.5a.5.5 0 0 0 1 0V12h3.5a.5.5 0 0 0 0-1H12V7.5Z" />
</svg>
